images/sale_img_tag.svg

<svg width="46" height="47" viewBox="0 0 46 47" fill="none" xmlns="http://www.w3.org/2000/svg">
<path d="M40.245 44.6645L6.50156 45.3292C4.17185 45.3751 2.24557 43.4807 2.19869 41.1007L1.80233 20.9796C1.75541 18.5981 3.60562 16.6307 5.93532 16.5848L8.74728 16.5294L20.5037 6.92639C20.4459 6.70467 20.4048 6.47544 20.4001 6.23542C20.3688 4.64873 21.6032 3.33616 23.1554 3.30559C24.7076 3.27501 25.9913 4.53797 26.0226 6.12466C26.0327 6.64063 25.8988 7.12205 25.6722 7.54634L36.8668 15.9755L39.6788 15.9201C42.0071 15.8742 43.9347 17.7672 43.9816 20.1487L44.378 40.2698C44.4249 42.6498 42.5733 44.6187 40.245 44.6645ZM24.6974 35.7446L30.3649 35.6329L30.3434 34.5435L25.8724 34.6316L25.7114 26.4567L24.5135 26.4803L24.6974 35.7446ZM16.5877 35.9043L17.5251 33.0779L21.3324 33.0029L22.431 35.7892L23.7976 35.7623L19.9202 26.5722L18.6211 26.5978L15.3195 35.9293L16.5877 35.9043ZM8.04564 27.8931C7.79498 28.3063 7.67426 28.7472 7.68346 29.2143C7.69187 29.6412 7.80488 30.0228 8.02398 30.3636C8.24307 30.7043 8.57068 30.984 9.00693 31.2098C9.3423 31.3843 9.92677 31.5655 10.7603 31.7532C11.5939 31.941 12.1325 32.0813 12.3776 32.1728C12.7588 32.3148 13.0337 32.4892 13.2053 32.7029C13.3769 32.9166 13.4662 33.1665 13.4719 33.4568C13.4775 33.7413 13.397 34.0089 13.2316 34.2552C13.0663 34.5014 12.81 34.6977 12.4626 34.844C12.1167 34.9917 11.716 35.0686 11.2604 35.0776C10.7472 35.0877 10.2843 35.0062 9.87009 34.8289C9.45454 34.6545 9.1475 34.419 8.94759 34.1239C8.74768 33.8288 8.61361 33.449 8.55104 32.9858L7.4212 33.1087C7.45028 33.7278 7.62708 34.2779 7.95168 34.7617C8.27627 35.2456 8.71659 35.6065 9.27395 35.8399C9.83272 36.0733 10.5198 36.182 11.3381 36.1659C11.9821 36.1532 12.5603 36.021 13.0716 35.768C13.5828 35.5164 13.9712 35.1723 14.2382 34.7299C14.5052 34.2876 14.6339 33.8235 14.6242 33.3306C14.6144 32.8347 14.4792 32.4003 14.2201 32.0244C13.9609 31.6485 13.5652 31.3414 13.0317 31.1046C12.6643 30.9436 11.994 30.7599 11.0194 30.5548C10.0434 30.3483 9.43873 30.1388 9.20531 29.9277C8.96632 29.7196 8.84422 29.4474 8.83768 29.1154C8.83009 28.7302 8.98957 28.4007 9.31462 28.1226C9.63967 27.8444 10.1628 27.6975 10.8855 27.6833C11.58 27.6696 12.1074 27.8087 12.4676 28.0978C12.8291 28.3883 13.0445 28.824 13.1178 29.4035L14.2689 29.2916C14.2371 28.7488 14.0799 28.2659 13.7973 27.843C13.5147 27.4201 13.1132 27.1031 12.5971 26.8919C12.081 26.6806 11.4883 26.583 10.8177 26.5962C10.2089 26.6082 9.65839 26.724 9.16484 26.9451C8.66844 27.1648 8.29629 27.4798 8.04564 27.8931ZM25.012 8.37313C24.5362 8.78077 23.9365 9.04131 23.2687 9.05447C22.3379 9.0728 21.5104 8.62183 20.9846 7.91905L10.1533 16.5017L35.4608 16.0032L25.012 8.37313ZM38.5459 34.3819L32.9881 34.4914L32.9259 31.3367L37.934 31.2381L37.9126 30.1486L32.9045 30.2473L32.8485 27.4059L38.1982 27.3005L38.1768 26.2111L31.6306 26.3401L31.813 35.603L38.5688 35.4699L38.5459 34.3819ZM19.2517 27.5515C19.4079 28.056 19.6343 28.6942 19.9323 29.4691L20.9374 32.0114L17.8456 32.0723L18.7975 29.3405C18.9926 28.7514 19.144 28.1547 19.2517 27.5515Z" fill="black"/>
</svg>

<svg width="46" height="47" fill="none" xmlns="http://www.w3.org/2000/svg"><path d="m40.245 44.664-33.743.665c-2.33.046-4.256-1.848-4.303-4.228L1.802 20.98c-.047-2.382 1.804-4.35 4.133-4.395l2.812-.056 11.757-9.603a2.956 2.956 0 0 1-.104-.69c-.031-1.587 1.203-2.9 2.755-2.93 1.553-.031 2.836 1.232 2.868 2.819.01.516-.124.997-.35 1.421l11.194 8.43 2.812-.056c2.328-.046 4.256 1.847 4.303 4.229l.396 20.12c.047 2.38-1.805 4.35-4.133 4.395zm-15.548-8.92 5.668-.111-.022-1.09-4.47.089-.162-8.175-1.197.023.183 9.265zm-8.11.16.938-2.826 3.807-.075 1.099 2.786 1.367-.027-3.878-9.19-1.299.026-3.301 9.331 1.268-.025zm-8.541-8.01c-.251.412-.372.853-.363 1.32.009.427.122.809.341 1.15.22.34.547.62.983.846.335.174.92.355 1.753.543.834.188 1.373.328 1.618.42.38.142.656.316.827.53.172.214.261.463.267.754.005.284-.075.552-.24.798-.166.246-.422.443-.77.589a3.205 3.205 0 0 1-1.202.234 3.327 3.327 0 0 1-1.39-.25c-.415-.174-.722-.409-.922-.704-.2-.295-.334-.675-.397-1.138l-1.13.123c.03.619.206 1.169.53 1.653.325.484.766.844 1.323 1.078.559.233 1.246.342 2.064.326.644-.013 1.222-.145 1.734-.398.51-.252.9-.596 1.166-1.038.267-.442.396-.906.386-1.4a2.328 2.328 0 0 0-.404-1.306c-.26-.376-.655-.683-1.188-.92-.368-.16-1.038-.344-2.013-.55-.976-.206-1.58-.415-1.814-.626a1.057 1.057 0 0 1-.367-.813c-.008-.385.152-.714.477-.992.325-.279.848-.425 1.57-.44.695-.013 1.222.126 1.583.415.361.29.576.726.65 1.306l1.15-.112a2.858 2.858 0 0 0-.47-1.449c-.283-.423-.685-.74-1.2-.951-.517-.211-1.11-.309-1.78-.296a4.204 4.204 0 0 0-1.653.35c-.497.219-.869.534-1.12.947zm16.966-19.52a2.752 2.752 0 0 1-1.743.68 2.78 2.78 0 0 1-2.284-1.135l-10.832 8.583 25.308-.499-10.449-7.63zm13.534 26.008-5.558.11-.062-3.155 5.008-.099-.021-1.09-5.008.1-.056-2.842 5.35-.105-.022-1.09-6.546.13.182 9.262 6.756-.133-.023-1.088zm-19.294-6.83c.156.504.382 1.142.68 1.917l1.005 2.542-3.091.061.951-2.732c.196-.589.347-1.185.455-1.788z" fill="#000"/></svg>
